X:142
T: La mao lu
N: C1638
O: China,Hebei, Zhangbei
S: IV, 62]
R: Xiaodiao]
M: 2/4
L: 1/16
K: Bb
d3dc4 | d3dc4 | d2cdcdcg | b8 |
c3bc2db | g2bgf2df | ggfgb3d | c8 |
c3bc2db | g2bgf2df | ggfgb3d | c8

@@@ Tune index: 6697
